usr/share/icons/biglinux-icons-material/22/actions/project-development-close.svg

<svg xmlns="http://www.w3.org/2000/svg" viewBox="0 0 22 22">
  <defs id="defs3051">
    <style type="text/css" id="current-color-scheme">
      .ColorScheme-Text {
        color:#dedede;
      }
      </style>
  </defs>
 <path 
     style="fill:currentColor;fill-opacity:1;stroke:none" 
     d="M 3 3 L 3 7 L 3 18 L 3 19 L 4 19 L 13 19 L 13 18 L 4 18 L 4 7 L 18 7 L 18 13 L 19 13 L 19 7 L 19 3 L 3 3 z "
     class="ColorScheme-Text"
     />
 <path 
     style="fill:#da4453;fill-opacity:1;stroke:none" 
     d="M 14.707031 14 L 14 14.707031 L 15.792969 16.5 L 14 18.292969 L 14.707031 19 L 16.5 17.207031 L 18.292969 19 L 19 18.292969 L 17.207031 16.5 L 19 14.707031 L 18.292969 14 L 16.5 15.792969 L 14.707031 14 z "
     />
</svg>

<svg xmlns="http://www.w3.org/2000/svg" viewBox="0 0 22 22"><path d="M3 3v16h10v-1H4V7h14v6h1V3H3z" style="fill:currentColor;fill-opacity:1;stroke:none;color:#dedede"/><path d="m14.707 14-.707.707 1.793 1.793L14 18.293l.707.707 1.793-1.793L18.293 19l.707-.707-1.793-1.793L19 14.707 18.293 14 16.5 15.793 14.707 14z" style="fill:#da4453;fill-opacity:1;stroke:none"/></svg>
